src/22/actions/nroot.svg

<svg xmlns="http://www.w3.org/2000/svg" viewBox="0 0 22 22">
  <defs id="defs3051">
    <style type="text/css" id="current-color-scheme">
      .ColorScheme-Text {
        color:#5d656b;
      }
      </style>
  </defs>
 <path 
     style="fill:currentColor;fill-opacity:1;stroke:none" 
     d="M 3 4 L 3 7 L 3 10 L 4 10 L 4 7 A 2 2 0 0 1 6 5 A 2 2 0 0 1 8 7 L 8 10 L 9 10 L 9 7 A 3 3 0 0 0 6 4 A 3 3 0 0 0 4 4.7695312 L 4 4 L 3 4 z M 16.515625 5.9960938 L 16.515625 6 L 11.320312 15.001953 L 9.0039062 10.996094 L 9 10.996094 L 3 11 L 3 12 L 8.4160156 11.996094 L 11.322266 16.996094 C 11.322266 16.996094 17.104806 7.0045936 17.09375 6.9960938 L 20 6.9960938 L 20 5.9960938 L 16.515625 5.9960938 z "
	 class="ColorScheme-Text"
     />
</svg>

<svg xmlns="http://www.w3.org/2000/svg" viewBox="0 0 22 22"><path d="M3 4v6h1V7a2 2 0 0 1 2-2 2 2 0 0 1 2 2v3h1V7a3 3 0 0 0-3-3 3 3 0 0 0-2 .77V4H3zm13.516 1.996V6l-5.196 9.002-2.316-4.006H9L3 11v1l5.416-.004 2.906 5s5.783-9.991 5.772-10H20v-1h-3.484z" fill="currentColor" color="#5d656b"/></svg>
